;Generated with Cura_SteamEngine 13.10
M109 T0 S220.000000
T0
;Sliced at: Sat 01-11-2014 17:49:37
;Basic settings: Layer height: 0.2 Walls: 0.8 Fill: 24
;Print time: #P_TIME#
;Filament used: #F_AMNT#m #F_WGHT#g
;Filament cost: #F_COST#
G21        ;metric values
G90        ;absolute positioning
M107       ;start with the fan off
G28 X0 Y0  ;move X/Y to min endstops
G28 Z0     ;move Z to min endstops
G1 Z15.0 F9000 ;move the platform down 15mm
G92 E0                  ;zero the extruded length
G1 F200 E3              ;extrude 3mm of feed stock
G92 E0                  ;zero the extruded length again
G1 F9000
M117 Printing...

;total_layers=169
;LAYER:0
M107
G0 F3600 X90.58 Y92.65 Z0.30
;TYPE:SKIRT
G1 F2400 E0.00000
G1 F1200 X90.95 Y92.28 E0.00991
G1 X91.59 Y91.77 E0.02526
G1 X92.03 Y91.49 E0.03513
G1 X92.74 Y91.12 E0.05015
G1 X93.21 Y90.94 E0.05962
G1 X93.95 Y90.73 E0.07412
G1 X94.44 Y90.64 E0.08334
G1 X95.03 Y90.58 E0.09452
G1 X95.21 Y90.58 E0.09801
G1 X95.72 Y90.57 E0.10747
G1 X95.77 Y90.56 E0.10850
G1 X96.06 Y90.57 E0.11387
G1 X96.07 Y90.57 E0.11413
G1 X96.17 Y90.56 E0.11601
G1 X96.90 Y90.57 E0.12972
G1 X97.27 Y90.57 E0.13668
G1 X97.28 Y90.57 E0.13695
G1 X97.60 Y90.57 E0.14297
G1 X98.00 Y90.57 E0.15047
G1 X98.02 Y90.57 E0.15074
G1 X98.34 Y90.57 E0.15677
G1 X98.74 Y90.57 E0.16428
G1 X98.75 Y90.57 E0.16454
G1 X99.07 Y90.57 E0.17056
G1 X99.47 Y90.57 E0.17807
G1 X99.48 Y90.57 E0.17833
G1 X99.80 Y90.57 E0.18435
G1 X100.20 Y90.57 E0.19186
G1 X100.22 Y90.57 E0.19212
G1 X100.51 Y90.57 E0.19763
G1 X101.25 Y90.56 E0.21157
G1 X101.28 Y90.56 E0.21219
G1 X101.50 Y90.57 E0.21633
G1 X101.51 Y90.57 E0.21640
G1 X101.74 Y90.56 E0.22069
G1 X102.49 Y90.59 E0.23491
G1 X102.68 Y90.58 E0.23856
G1 X103.40 Y90.57 E0.25207
G1 X103.45 Y90.57 E0.25305
G1 X103.72 Y90.57 E0.25815
G1 X103.92 Y90.57 E0.26178
G1 X103.96 Y90.57 E0.26257
G1 X104.51 Y90.57 E0.27286
G1 X104.94 Y90.57 E0.28110
G1 X104.96 Y90.57 E0.28142
G1 X105.21 Y90.57 E0.28608
G1 X105.68 Y90.57 E0.29491
G1 X105.70 Y90.57 E0.29523
G1 X105.94 Y90.57 E0.29987
G1 X106.41 Y90.57 E0.30869
G1 X106.43 Y90.57 E0.30901
G1 X106.68 Y90.57 E0.31366
G1 X107.15 Y90.57 E0.32248
G1 X107.16 Y90.57 E0.32280
G1 X107.41 Y90.57 E0.32747
G1 X107.88 Y90.57 E0.33629
G1 X107.90 Y90.57 E0.33661
G1 X108.12 Y90.57 E0.34088
G1 X108.94 Y90.57 E0.35621
G1 X108.97 Y90.57 E0.35674
G1 X109.21 Y90.57 E0.36123
G1 X109.36 Y90.57 E0.36409
G1 X109.54 Y90.57 E0.36748
G1 X110.48 Y90.63 E0.38523
G1 X111.08 Y90.73 E0.39669
G1 X111.89 Y90.97 E0.41255
G1 X112.36 Y91.17 E0.42221
G1 X113.08 Y91.55 E0.43749
G1 X113.52 Y91.85 E0.44754
G1 X114.15 Y92.38 E0.46299
G1 X114.52 Y92.75 E0.47290
G1 X115.03 Y93.39 E0.48825
G1 X115.31 Y93.83 E0.49812
G1 X115.68 Y94.54 E0.51314
G1 X115.86 Y95.01 E0.52261
G1 X116.07 Y95.75 E0.53711
G1 X116.16 Y96.23 E0.54629
G1 X116.22 Y96.83 E0.55763
G1 X116.22 Y97.04 E0.56145
G1 X116.23 Y97.67 E0.57339
G1 X116.23 Y97.71 E0.57413
G1 X116.23 Y98.03 E0.58018
G1 X116.23 Y98.22 E0.58378
G1 X116.23 Y98.26 E0.58447
G1 X116.23 Y98.88 E0.59617
G1 X116.23 Y99.37 E0.60526
G1 X116.23 Y99.38 E0.60552
G1 X116.23 Y99.67 E0.61090
G1 X116.23 Y100.18 E0.62059
G1 X116.23 Y100.19 E0.62085
G1 X116.23 Y100.48 E0.62623
G1 X116.23 Y101.00 E0.63592
G1 X116.23 Y101.01 E0.63618
G1 X116.23 Y101.30 E0.64156
G1 X116.23 Y101.81 E0.65127
G1 X116.23 Y101.83 E0.65153
G1 X116.23 Y102.11 E0.65691
G1 X116.23 Y102.63 E0.66658
G1 X116.23 Y102.64 E0.66685
G1 X116.23 Y102.93 E0.67223
G1 X116.23 Y103.44 E0.68193
G1 X116.23 Y103.46 E0.68220
G1 X116.23 Y103.74 E0.68758
G1 X116.23 Y104.26 E0.69726
G1 X116.23 Y104.27 E0.69753
G1 X116.23 Y104.56 E0.70291
G1 X116.23 Y105.07 E0.71259
G1 X116.23 Y105.09 E0.71286
G1 X116.23 Y105.37 E0.71824
G1 X116.23 Y105.89 E0.72794
G1 X116.23 Y105.90 E0.72821
G1 X116.23 Y106.19 E0.73359
G1 X116.23 Y107.07 E0.75014
G1 X116.23 Y107.09 E0.75063
G1 X116.23 Y107.41 E0.75655
G1 X116.23 Y107.53 E0.75877
G1 X116.23 Y107.70 E0.76195
G1 X116.18 Y108.67 E0.78025
G1 X116.07 Y109.28 E0.79186
G1 X115.82 Y110.09 E0.80779
G1 X115.63 Y110.56 E0.81746
G1 X115.25 Y111.28 E0.83274
G1 X114.95 Y111.72 E0.84278
G1 X114.42 Y112.35 E0.85824
G1 X114.05 Y112.72 E0.86815
G1 X113.41 Y113.23 E0.88350
G1 X112.97 Y113.51 E0.89337
G1 X112.26 Y113.88 E0.90838
G1 X111.79 Y114.06 E0.91786
G1 X111.05 Y114.27 E0.93236
G1 X110.56 Y114.36 E0.94158
G1 X109.96 Y114.41 E0.95289
G1 X109.77 Y114.43 E0.95662
G1 X109.18 Y114.43 E0.96759
G1 X109.14 Y114.43 E0.96841
G1 X108.87 Y114.43 E0.97340
G1 X108.68 Y114.43 E0.97705
G1 X108.64 Y114.43 E0.97784
G1 X108.09 Y114.43 E0.98822
G1 X107.65 Y114.43 E0.99637
G1 X107.64 Y114.43 E0.99669
G1 X107.39 Y114.43 E1.00131
G1 X106.92 Y114.43 E1.01015
G1 X106.90 Y114.43 E1.01047
G1 X106.66 Y114.43 E1.01512
G1 X106.19 Y114.43 E1.02396
G1 X106.17 Y114.43 E1.02428
G1 X105.92 Y114.43 E1.02891
G1 X105.45 Y114.43 E1.03775
G1 X105.44 Y114.43 E1.03807
G1 X105.19 Y114.43 E1.04270
G1 X104.72 Y114.43 E1.05154
G1 X104.70 Y114.43 E1.05186
G1 X104.48 Y114.43 E1.05600
G1 X103.66 Y114.43 E1.07148
G1 X103.63 Y114.43 E1.07200
G1 X103.40 Y114.43 E1.07644
G1 X103.26 Y114.43 E1.07893
G1 X103.13 Y114.43 E1.08149
G1 X102.51 Y114.41 E1.09314
G1 X102.33 Y114.42 E1.09642
G1 X101.70 Y114.43 E1.10841
G1 X101.63 Y114.43 E1.10963
G1 X101.31 Y114.43 E1.11563
G1 X101.23 Y114.43 E1.11721
G1 X100.50 Y114.43 E1.13104
G1 X100.13 Y114.43 E1.13788
G1 X100.12 Y114.43 E1.13815
G1 X99.80 Y114.43 E1.14417
G1 X99.40 Y114.43 E1.15169
G1 X99.38 Y114.43 E1.15195
G1 X99.06 Y114.43 E1.15795
G1 X98.66 Y114.43 E1.16548
G1 X98.65 Y114.43 E1.16574
G1 X98.33 Y114.43 E1.17174
G1 X97.93 Y114.43 E1.17927
G1 X97.92 Y114.43 E1.17953
G1 X97.60 Y114.43 E1.18555
G1 X97.20 Y114.43 E1.19307
G1 X97.18 Y114.43 E1.19334
G1 X96.90 Y114.43 E1.19866
G1 X96.15 Y114.43 E1.21277
G1 X96.12 Y114.43 E1.21339
G1 X95.89 Y114.43 E1.21773
G1 X95.87 Y114.43 E1.21800
G1 X95.60 Y114.43 E1.22304
G1 X94.54 Y114.38 E1.24308
G1 X93.93 Y114.27 E1.25479
G1 X93.11 Y114.02 E1.27078
G1 X92.64 Y113.83 E1.28045
G1 X91.92 Y113.45 E1.29573
G1 X91.48 Y113.15 E1.30577
G1 X90.85 Y112.62 E1.32123
G1 X90.48 Y112.25 E1.33114
G1 X89.97 Y111.61 E1.34649
G1 X89.69 Y111.17 E1.35635
G1 X89.32 Y110.46 E1.37137
G1 X89.14 Y109.99 E1.38085
G1 X88.93 Y109.25 E1.39535
G1 X88.84 Y108.77 E1.40453
G1 X88.78 Y108.17 E1.41575
G1 X88.78 Y107.98 E1.41934
G1 X88.77 Y107.43 E1.42964
G1 X88.77 Y107.38 E1.43056
G1 X88.77 Y107.05 E1.43684
G1 X88.77 Y107.03 E1.43718
G1 X88.77 Y106.94 E1.43885
G1 X88.77 Y106.12 E1.45430
G1 X88.77 Y105.72 E1.46188
G1 X88.77 Y105.71 E1.46210
G1 X88.77 Y105.36 E1.46856
G1 X88.77 Y104.90 E1.47721
G1 X88.77 Y104.89 E1.47743
G1 X88.77 Y104.55 E1.48389
G1 X88.77 Y104.09 E1.49254
G1 X88.77 Y104.08 E1.49277
G1 X88.77 Y103.73 E1.49922
G1 X88.77 Y103.27 E1.50789
G1 X88.77 Y103.26 E1.50812
G1 X88.77 Y102.92 E1.51457
G1 X88.77 Y102.46 E1.52322
G1 X88.77 Y102.45 E1.52345
G1 X88.77 Y102.10 E1.52988
G1 X88.77 Y101.64 E1.53855
G1 X88.77 Y101.63 E1.53878
G1 X88.77 Y101.29 E1.54523
G1 X88.77 Y100.83 E1.55388
G1 X88.77 Y100.82 E1.55411
G1 X88.77 Y100.47 E1.56056
G1 X88.77 Y100.01 E1.56921
G1 X88.77 Y100.00 E1.56944
G1 X88.77 Y99.66 E1.57589
G1 X88.77 Y99.20 E1.58456
G1 X88.77 Y99.19 E1.58479
G1 X88.77 Y98.88 E1.59062
G1 X88.77 Y98.03 E1.60659
G1 X88.77 Y98.00 E1.60712
G1 X88.77 Y97.71 E1.61252
G1 X88.77 Y97.69 E1.61293
G1 X88.77 Y97.44 E1.61752
G1 X88.82 Y96.35 E1.63811
G1 X88.93 Y95.73 E1.64998
G1 X89.17 Y94.91 E1.66603
G1 X89.37 Y94.44 E1.67570
G1 X89.75 Y93.72 E1.69098
G1 X90.05 Y93.28 E1.70102
G1 X90.58 Y92.65 E1.71647
G0 F3600 X90.87 Y92.92
G1 F1200 X91.22 Y92.58 E1.72563
G1 X91.83 Y92.10 E1.74022
G1 X92.23 Y91.83 E1.74933
G1 X92.91 Y91.49 E1.76360
G1 X93.34 Y91.32 E1.77236
G1 X94.05 Y91.12 E1.78612
G1 X94.49 Y91.03 E1.79460
G1 X95.06 Y90.98 E1.80531
G1 X95.23 Y90.97 E1.80853
G1 X95.72 Y90.97 E1.81783
G1 X95.77 Y90.97 E1.81879
G1 X96.06 Y90.97 E1.82426
G1 X96.08 Y90.97 E1.82454
G1 X96.17 Y90.97 E1.82627
G1 X96.90 Y90.97 E1.83993
G1 X97.27 Y90.97 E1.84695
G1 X97.28 Y90.97 E1.84721
G1 X97.60 Y90.97 E1.85323
G1 X98.00 Y90.97 E1.86073
G1 X98.02 Y90.97 E1.86100
G1 X98.34 Y90.97 E1.86704
G1 X98.74 Y90.97 E1.87454
G1 X98.75 Y90.97 E1.87481
G1 X99.07 Y90.97 E1.88082
G1 X99.47 Y90.97 E1.88833
G1 X99.48 Y90.97 E1.88859
G1 X99.80 Y90.97 E1.89461
G1 X100.20 Y90.97 E1.90212
G1 X100.22 Y90.97 E1.90238
G1 X100.51 Y90.97 E1.90793
G1 X101.25 Y90.97 E1.92189
G1 X101.28 Y90.97 E1.92245
G1 X101.51 Y90.97 E1.92678
G1 X101.52 Y90.97 E1.92687
G1 X101.73 Y90.97 E1.93084
G1 X102.50 Y90.99 E1.94534
G1 X102.70 Y90.98 E1.94917
G1 X103.41 Y90.97 E1.96241
G1 X103.46 Y90.97 E1.96333
G1 X103.73 Y90.97 E1.96843
G1 X103.92 Y90.97 E1.97204
G1 X103.96 Y90.97 E1.97278
G1 X104.50 Y90.97 E1.98305
G1 X104.95 Y90.97 E1.99138
G1 X104.96 Y90.97 E1.99164
G1 X105.21 Y90.97 E1.99633
G1 X105.68 Y90.97 E2.00519
G1 X105.69 Y90.97 E2.00545
G1 X105.94 Y90.97 E2.01012
G1 X106.41 Y90.97 E2.01898
G1 X106.43 Y90.97 E2.01924
G1 X106.68 Y90.97 E2.02391
G1 X107.15 Y90.97 E2.03277
G1 X107.16 Y90.97 E2.03303
G1 X107.41 Y90.97 E2.03771
G1 X107.88 Y90.97 E2.04657
G1 X107.89 Y90.97 E2.04684
G1 X108.12 Y90.97 E2.05116
G1 X108.94 Y90.97 E2.06651
G1 X108.97 Y90.97 E2.06700
G1 X109.21 Y90.97 E2.07153
G1 X109.35 Y90.97 E2.07430
G1 X109.52 Y90.97 E2.07742
G1 X110.43 Y91.02 E2.09461
G1 X110.99 Y91.12 E2.10519
G1 X111.75 Y91.35 E2.12024
G1 X112.19 Y91.53 E2.12916
G1 X112.87 Y91.90 E2.14369
G1 X113.28 Y92.17 E2.15297
G1 X113.88 Y92.67 E2.16763
G1 X114.22 Y93.02 E2.17679
G1 X114.70 Y93.63 E2.19138
G1 X114.97 Y94.03 E2.20049
G1 X115.31 Y94.71 E2.21476
G1 X115.48 Y95.14 E2.22352
G1 X115.68 Y95.84 E2.23727
G1 X115.76 Y96.29 E2.24576
G1 X115.82 Y96.86 E2.25659
G1 X115.83 Y97.05 E2.26013
G1 X115.83 Y97.67 E2.27188
G1 X115.83 Y97.71 E2.27258
G1 X115.83 Y98.03 E2.27860
G1 X115.83 Y98.22 E2.28219
G1 X115.83 Y98.26 E2.28287
G1 X115.83 Y98.88 E2.29453
G1 X115.83 Y99.37 E2.30369
G1 X115.83 Y99.38 E2.30394
G1 X115.83 Y99.66 E2.30930
G1 X115.83 Y100.18 E2.31902
G1 X115.83 Y100.19 E2.31927
G1 X115.83 Y100.48 E2.32463
G1 X115.83 Y101.00 E2.33435
G1 X115.83 Y101.01 E2.33460
G1 X115.83 Y101.29 E2.33996
G1 X115.83 Y101.81 E2.34970
G1 X115.83 Y101.83 E2.34995
G1 X115.83 Y102.11 E2.35531
G1 X115.83 Y102.63 E2.36502
G1 X115.83 Y102.64 E2.36526
G1 X115.83 Y102.92 E2.37062
G1 X115.83 Y103.44 E2.38037
G1 X115.83 Y103.46 E2.38061
G1 X115.83 Y103.74 E2.38597
G1 X115.83 Y104.26 E2.39570
G1 X115.83 Y104.27 E2.39594
G1 X115.83 Y104.56 E2.40130
G1 X115.83 Y105.07 E2.41103
G1 X115.83 Y105.08 E2.41127
G1 X115.83 Y105.37 E2.41663
G1 X115.83 Y105.89 E2.42638
G1 X115.83 Y105.90 E2.42662
G1 X115.83 Y106.19 E2.43198
G1 X115.83 Y107.07 E2.44861
G1 X115.83 Y107.09 E2.44906
G1 X115.83 Y107.41 E2.45497
G1 X115.83 Y107.53 E2.45717
G1 X115.83 Y107.68 E2.46009
G1 X115.78 Y108.62 E2.47781
G1 X115.68 Y109.18 E2.48855
G1 X115.45 Y109.95 E2.50366
G1 X115.27 Y110.39 E2.51257
G1 X114.90 Y111.07 E2.52710
G1 X114.63 Y111.48 E2.53639
G1 X114.13 Y112.08 E2.55105
G1 X113.78 Y112.42 E2.56020
G1 X113.17 Y112.90 E2.57479
G1 X112.77 Y113.17 E2.58391
G1 X112.09 Y113.51 E2.59818
G1 X111.66 Y113.68 E2.60693
G1 X110.95 Y113.88 E2.62070
G1 X110.51 Y113.96 E2.62918
G1 X109.94 Y114.02 E2.64000
G1 X109.75 Y114.03 E2.64349
G1 X109.18 Y114.03 E2.65428
G1 X109.14 Y114.03 E2.65502
G1 X108.87 Y114.03 E2.66002
G1 X108.68 Y114.03 E2.66365
G1 X108.64 Y114.03 E2.66439
G1 X108.09 Y114.03 E2.67475
G1 X107.65 Y114.03 E2.68299
G1 X107.64 Y114.03 E2.68325
G1 X107.39 Y114.03 E2.68790
G1 X106.92 Y114.03 E2.69678
G1 X106.91 Y114.03 E2.69704
G1 X106.66 Y114.03 E2.70171
G1 X106.19 Y114.03 E2.71059
G1 X106.17 Y114.03 E2.71085
G1 X105.92 Y114.03 E2.71549
G1 X105.45 Y114.03 E2.72437
G1 X105.44 Y114.03 E2.72464
G1 X105.19 Y114.03 E2.72928
G1 X104.72 Y114.03 E2.73816
G1 X104.71 Y114.03 E2.73842
G1 X104.48 Y114.03 E2.74262
G1 X103.66 Y114.03 E2.75812
G1 X103.63 Y114.03 E2.75861
G1 X103.39 Y114.03 E2.76309
G1 X103.27 Y114.03 E2.76551
G1 X103.14 Y114.03 E2.76786
G1 X102.50 Y114.01 E2.77988
G1 X102.32 Y114.02 E2.78340
G1 X101.69 Y114.03 E2.79514
G1 X101.63 Y114.03 E2.79625
G1 X101.31 Y114.03 E2.80233
G1 X101.23 Y114.03 E2.80382
G1 X100.50 Y114.03 E2.81759
G1 X100.13 Y114.03 E2.82449
G1 X100.12 Y114.03 E2.82475
G1 X99.80 Y114.03 E2.83077
G1 X99.40 Y114.03 E2.83830
G1 X99.38 Y114.03 E2.83856
G1 X99.06 Y114.03 E2.84456
G1 X98.66 Y114.03 E2.85209
G1 X98.65 Y114.03 E2.85235
G1 X98.33 Y114.03 E2.85835
G1 X97.93 Y114.03 E2.86587
G1 X97.92 Y114.03 E2.86614
G1 X97.60 Y114.03 E2.87216
G1 X97.20 Y114.03 E2.87968
G1 X97.18 Y114.03 E2.87994
G1 X96.90 Y114.03 E2.88532
G1 X96.15 Y114.03 E2.89943
G1 X96.12 Y114.03 E2.90000
G1 X95.88 Y114.03 E2.90451
G1 X95.86 Y114.03 E2.90477
G1 X95.61 Y114.03 E2.90946
G1 X94.58 Y113.98 E2.92884
G1 X94.02 Y113.88 E2.93965
G1 X93.25 Y113.65 E2.95481
G1 X92.81 Y113.47 E2.96373
G1 X92.13 Y113.10 E2.97826
G1 X91.72 Y112.83 E2.98754
G1 X91.12 Y112.33 E3.00221
G1 X90.78 Y111.98 E3.01136
G1 X90.30 Y111.37 E3.02595
G1 X90.03 Y110.97 E3.03507
G1 X89.69 Y110.29 E3.04933
G1 X89.52 Y109.86 E3.05809
G1 X89.32 Y109.15 E3.07184
G1 X89.23 Y108.71 E3.08034
G1 X89.18 Y108.14 E3.09105
G1 X89.17 Y107.97 E3.09436
G1 X89.17 Y107.43 E3.10448
G1 X89.17 Y107.38 E3.10535
G1 X89.17 Y107.04 E3.11172
G1 X89.17 Y107.03 E3.11206
G1 X89.17 Y106.94 E3.11362
G1 X89.17 Y106.13 E3.12899
G1 X89.17 Y105.72 E3.13663
G1 X89.17 Y105.71 E3.13688
G1 X89.17 Y105.36 E3.14333
G1 X89.17 Y104.91 E3.15196
G1 X89.17 Y104.89 E3.15221
G1 X89.17 Y104.55 E3.15866
G1 X89.17 Y104.09 E3.16729
G1 X89.17 Y104.08 E3.16754
G1 X89.17 Y103.73 E3.17399
G1 X89.17 Y103.27 E3.18264
G1 X89.17 Y103.26 E3.18289
G1 X89.17 Y102.92 E3.18934
G1 X89.17 Y102.46 E3.19797
G1 X89.17 Y102.45 E3.19822
G1 X89.17 Y102.10 E3.20465
G1 X89.17 Y101.64 E3.21330
G1 X89.17 Y101.63 E3.21355
G1 X89.17 Y101.29 E3.22000
G1 X89.17 Y100.83 E3.22863
G1 X89.17 Y100.82 E3.22888
G1 X89.17 Y100.47 E3.23533
G1 X89.17 Y100.01 E3.24397
G1 X89.17 Y100.00 E3.24421
G1 X89.17 Y99.66 E3.25066
G1 X89.17 Y99.20 E3.25931
G1 X89.17 Y99.19 E3.25956
G1 X89.17 Y98.87 E3.26547
G1 X89.17 Y98.02 E3.28142
G1 X89.17 Y98.00 E3.28189
G1 X89.17 Y97.69 E3.28764
G1 X89.17 Y97.68 E3.28787
G1 X89.17 Y97.46 E3.29208
G1 X89.22 Y96.40 E3.31205
G1 X89.32 Y95.82 E3.32301
G1 X89.55 Y95.05 E3.33823
G1 X89.73 Y94.61 E3.34715
G1 X90.10 Y93.93 E3.36168
G1 X90.37 Y93.52 E3.37096
G1 X90.87 Y92.92 E3.38563
G0 F3600 X91.17 Y93.19
G1 F1200 X91.48 Y92.88 E3.39402
G1 X92.06 Y92.42 E3.40785
G1 X92.43 Y92.18 E3.41620
G1 X93.07 Y91.85 E3.42971
G1 X93.47 Y91.70 E3.43773
G1 X94.14 Y91.51 E3.45080
G1 X94.54 Y91.43 E3.45859
G1 X95.08 Y91.38 E3.46880
G1 X95.24 Y91.38 E3.47176
G1 X95.73 Y91.37 E3.48089
G1 X95.77 Y91.36 E3.48175
G1 X96.07 Y91.37 E3.48734
G1 X96.08 Y91.37 E3.48762
G1 X96.17 Y91.36 E3.48922
G1 X96.89 Y91.37 E3.50284
G1 X97.27 Y91.37 E3.50991
G1 X97.28 Y91.37 E3.51014
G1 X97.60 Y91.37 E3.51618
G1 X98.00 Y91.37 E3.52370
G1 X98.01 Y91.37 E3.52391
G1 X98.34 Y91.37 E3.52997
G1 X98.74 Y91.37 E3.53751
G1 X98.75 Y91.37 E3.53773
G1 X99.07 Y91.37 E3.54377
G1 X99.47 Y91.37 E3.55130
G1 X99.48 Y91.37 E3.55152
G1 X99.80 Y91.37 E3.55756
G1 X100.20 Y91.37 E3.56509
G1 X100.21 Y91.37 E3.56529
G1 X100.51 Y91.37 E3.57092
G1 X101.26 Y91.36 E3.58489
G1 X101.28 Y91.36 E3.58540
G1 X101.52 Y91.37 E3.58994
G1 X101.53 Y91.37 E3.59005
G1 X101.72 Y91.36 E3.59366
G1 X102.51 Y91.39 E3.60842
G1 X102.51 Y91.39 E3.60844
G1 X102.72 Y91.38 E3.61245
G1 X103.41 Y91.37 E3.62545
G1 X103.46 Y91.37 E3.62628
G1 X103.73 Y91.37 E3.63138
G1 X103.92 Y91.37 E3.63499
G1 X103.96 Y91.37 E3.63569
G1 X104.50 Y91.37 E3.64596
G1 X104.95 Y91.37 E3.65433
G1 X104.96 Y91.37 E3.65459
G1 X105.21 Y91.37 E3.65928
G1 X105.68 Y91.37 E3.66814
G1 X105.69 Y91.37 E3.66840
G1 X105.94 Y91.37 E3.67306
G1 X106.41 Y91.37 E3.68192
G1 X106.43 Y91.37 E3.68219
G1 X106.68 Y91.37 E3.68685
G1 X107.15 Y91.37 E3.69571
G1 X107.16 Y91.37 E3.69598
G1 X107.41 Y91.37 E3.70066
G1 X107.88 Y91.37 E3.70952
G1 X107.89 Y91.37 E3.70978
G1 X108.13 Y91.37 E3.71413
G1 X108.94 Y91.37 E3.72950
G1 X108.97 Y91.37 E3.72993
G1 X109.21 Y91.37 E3.73452
G1 X109.35 Y91.37 E3.73721
G1 X109.50 Y91.37 E3.74005
G1 X110.39 Y91.42 E3.75667
G1 X110.89 Y91.51 E3.76639
G1 X111.62 Y91.73 E3.78062
